public/images/left.svg

<svg xmlns:xlink="http://www.w3.org/1999/xlink" xmlns="http://www.w3.org/2000/svg" width="22" height="14" viewBox="0 0 22 14" fill="none">
<path d="M5.92316 13.4949C6.27494 13.8372 6.84274 13.8347 7.19139 13.4893C7.54004 13.144 7.53751 12.5865 7.18574 12.2442L5.07773 10.193C4.2222 9.36058 3.63534 8.78766 3.23825 8.30222C3.1092 8.14446 3.00851 8.00557 2.93033 7.88044L20.903 7.88043C21.3983 7.88043 21.7998 7.48625 21.7998 7C21.7998 6.51375 21.3983 6.11956 20.903 6.11956L2.93033 6.11957C3.00851 5.99443 3.1092 5.85555 3.23825 5.69779C3.63534 5.21234 4.2222 4.63942 5.07773 3.80696L7.18574 1.75577C7.53751 1.41348 7.54004 0.85602 7.19139 0.510659C6.84274 0.165297 6.27493 0.162811 5.92316 0.505104L3.77716 2.59325C2.9689 3.37971 2.3083 4.02248 1.83981 4.59519C1.35265 5.19075 0.999989 5.79524 0.905785 6.52086C0.885132 6.67994 0.874805 6.83997 0.874805 7C0.874805 7.16004 0.885132 7.32007 0.905785 7.47915C0.99999 8.20476 1.35265 8.80925 1.83981 9.40481C2.3083 9.97753 2.96891 10.6203 3.77719 11.4068L5.92316 13.4949Z" fill="#8D9AC5"/>
</svg>

<svg xmlns="http://www.w3.org/2000/svg" width="22" height="14" fill="none"><path fill="#8D9AC5" d="M5.923 13.495c.352.342.92.34 1.268-.006a.87.87 0 0 0-.005-1.245l-2.108-2.051c-.856-.832-1.443-1.405-1.84-1.89a4 4 0 0 1-.308-.423h17.973A.89.89 0 0 0 21.8 7a.89.89 0 0 0-.897-.88H2.93q.117-.187.308-.422c.397-.486.984-1.059 1.84-1.891l2.108-2.051A.87.87 0 0 0 7.19.51.91.91 0 0 0 5.923.505L3.777 2.593c-.808.787-1.469 1.43-1.937 2.002-.487.596-.84 1.2-.934 1.926a3.7 3.7 0 0 0 0 .958c.094.726.447 1.33.934 1.926.468.573 1.129 1.215 1.937 2.002z"/></svg>
